X:172
T:Rakes of Rochester, The
M:2/4
L:1/8
B:Thompson's Compleat Collection of 200 Favourite Country Dances, vol. 1 (London, 1757)
Z:Transcribed and edited by Flynn Titford-Mock, 2007
Z:abc's:AK/Fiddler's Companion
K:A
(e/d/)|c A2 E|"tr"F2 EA|GA dc|(B/A/G/F/) Ee/d/|c A2 E|F2 EA|GA (c/B/A/G/)|A3:|
|:B|"tr"c2 Be|"tr"c2 Be|{d}cB/A/ GA|(B/A/G/F/) EB|"tr"c2 Be|"tr"c2 Be|{d}cB/A/ (c/B/A/G/)|A3:|

